assets/images/mobile_puzzle_1_dark.svg

<?xml version="1.0" encoding="UTF-8"?>
<svg fill="none" viewBox="0 0 115 115" xmlns="http://www.w3.org/2000/svg">
<rect width="115" height="115" fill=""/>
<g filter="url(#c)">
<path d="m-359-554c0-16.569 13.431-30 30-30h800c16.569 0 30 13.431 30 30v2494c0 16.57-13.431 30-30 30h-800c-16.569 0-30-13.43-30-30v-2494z" fill="#232A34"/>
</g>
<g filter="url(#b)">
<path d="m260-424.15c0-7.12-2.818-13.95-7.825-18.98-5.018-5.04-11.818-7.87-18.907-7.87h-327.54c-7.0891 0-13.889 2.83-18.907 7.86-5.017 5.03-7.825 11.87-7.825 18.99v474.36c0 7.12 2.818 13.95 7.825 18.98 5.008 5.03 11.808 7.86 18.897 7.86h134.82c0.1593-0.13 0.3186-0.27 0.458-0.41l0.4181-0.43c0.5974-0.61 0.7567-1.69 0.3087-2.42l-0.5874-0.9c-6.5611-5.46-10.753-13.71-10.753-22.93 0-16.43 13.262-29.76 29.629-29.76 16.368 0 29.629 13.32 29.629 29.76 0 9.31-4.2612 17.61-10.922 23.07l-0.5277 0.8c-0.448 0.73-0.2887 1.81 0.3086 2.42l0.4182 0.43c0.1294 0.13 0.2688 0.25 0.4082 0.37h153.91c7.089 0 13.889-2.83 18.897-7.86s7.825-11.86 7.825-18.98l0.04-474.36z" fill="#232A34"/>
</g>
<g filter="url(#a)">
<path d="m-113.17 596.23c2.479 2.49 5.427 4.47 8.673 5.82 3.245 1.35 6.7204 2.04 10.225 2.04h142.29l0.7468-0.2c0.8264-0.24 1.5831-0.7 2.1905-1.32l0.4182-0.43c0.5974-0.61 0.7567-1.69 0.3087-2.42l-0.5278-0.8c-6.6611-5.46-10.923-13.76-10.923-23.07 0-16.43 13.262-29.76 29.632-29.76 16.359 0 29.632 13.32 29.632 29.76 0 9.23-4.1819 17.48-10.753 22.93l-0.5875 0.9c-0.4481 0.73-0.2887 1.81 0.3087 2.42l0.4182 0.43c0.6073 0.62 1.3641 1.08 2.1905 1.32l0.916 0.24h141.29c3.514 0 6.989-0.69 10.225-2.04 3.246-1.35 6.194-3.33 8.673-5.82s4.451-5.45 5.795-8.71 2.031-6.75 2.031-10.27v-474.36c0-7.1196-2.818-13.95-7.826-18.98s-11.809-7.86-18.898-7.86h-149.77l-2.2701-0.6c-0.8264-0.24-1.5832-0.7-2.1905-1.32l-0.4182-0.43c-0.5974-0.61-0.7568-1.69-0.3087-2.42l0.5277-0.8c6.6612-5.46 10.923-13.76 10.923-23.07 0-16.43-13.262-29.76-29.632-29.76-16.359 0-29.632 13.32-29.632 29.76 0 9.23 4.1819 17.48 10.753 22.93l0.5875 0.9c0.448 0.73 0.2887 1.81-0.3087 2.42l-0.4182 0.43c-0.6073 0.62-1.3641 1.08-2.1905 1.32l-2.4394 0.65h-130.75c-7.0892 0-13.89 2.83-18.898 7.86-5.018 5.01-7.836 11.84-7.836 18.96v474.36c0 3.53 0.687 7.02 2.031 10.27 1.344 3.27 3.316 6.23 5.795 8.72z" fill="#232A34"/>
</g>
<defs>
<filter id="c" x="-392" y="-617" width="928" height="2622" color-interpolation-filters="sRGB" filterUnits="userSpaceOnUse">
<feFlood flood-opacity="0" result="BackgroundImageFix"/>
<feColorMatrix in="SourceAlpha" result="hardAlpha" values="0 0 0 0 0 0 0 0 0 0 0 0 0 0 0 0 0 0 127 0"/>
<feOffset dx="10" dy="10"/>
<feGaussianBlur stdDeviation="12.5"/>
<feComposite in2="hardAlpha" operator="out"/>
<feColorMatrix values="0 0 0 0 0.0784314 0 0 0 0 0.0784314 0 0 0 0 0.0784314 0 0 0 1 0"/>
<feBlend in2="BackgroundImageFix" result="effect1_dropShadow_403_337"/>
<feColorMatrix in="SourceAlpha" result="hardAlpha" values="0 0 0 0 0 0 0 0 0 0 0 0 0 0 0 0 0 0 127 0"/>
<feOffset dx="-8" dy="-8"/>
<feGaussianBlur stdDeviation="12.5"/>
<feComposite in2="hardAlpha" operator="out"/>
<feColorMatrix values="0 0 0 0 0.207843 0 0 0 0 0.254902 0 0 0 0 0.32549 0 0 0 1 0"/>
<feBlend in2="effect1_dropShadow_403_337" result="effect2_dropShadow_403_337"/>
<feBlend in="SourceGraphic" in2="effect2_dropShadow_403_337" result="shape"/>
</filter>
<filter id="b" x="-126" y="-456" width="390" height="537.05" color-interpolation-filters="sRGB" filterUnits="userSpaceOnUse">
<feFlood flood-opacity="0" result="BackgroundImageFix"/>
<feBlend in="SourceGraphic" in2="BackgroundImageFix" result="shape"/>
<feColorMatrix in="SourceAlpha" result="hardAlpha" values="0 0 0 0 0 0 0 0 0 0 0 0 0 0 0 0 0 0 127 0"/>
<feOffset dx="4" dy="4"/>
<feGaussianBlur stdDeviation="10"/>
<feComposite in2="hardAlpha" k2="-1" k3="1" operator="arithmetic"/>
<feColorMatrix values="0 0 0 0 0.0784314 0 0 0 0 0.0784314 0 0 0 0 0.0784314 0 0 0 1 0"/>
<feBlend in2="shape" result="effect1_innerShadow_403_337"/>
<feColorMatrix in="SourceAlpha" result="hardAlpha" values="0 0 0 0 0 0 0 0 0 0 0 0 0 0 0 0 0 0 127 0"/>
<feOffset dx="-5" dy="-5"/>
<feGaussianBlur stdDeviation="10"/>
<feComposite in2="hardAlpha" k2="-1" k3="1" operator="arithmetic"/>
<feColorMatrix values="0 0 0 0 0.207843 0 0 0 0 0.254902 0 0 0 0 0.32549 0 0 0 1 0"/>
<feBlend in2="effect1_innerShadow_403_337" result="effect2_innerShadow_403_337"/>
</filter>
<filter id="a" x="-126" y="12.65" width="390" height="595.44" color-interpolation-filters="sRGB" filterUnits="userSpaceOnUse">
<feFlood flood-opacity="0" result="BackgroundImageFix"/>
<feBlend in="SourceGraphic" in2="BackgroundImageFix" result="shape"/>
<feColorMatrix in="SourceAlpha" result="hardAlpha" values="0 0 0 0 0 0 0 0 0 0 0 0 0 0 0 0 0 0 127 0"/>
<feOffset dx="4" dy="4"/>
<feGaussianBlur stdDeviation="10"/>
<feComposite in2="hardAlpha" k2="-1" k3="1" operator="arithmetic"/>
<feColorMatrix values="0 0 0 0 0.0784314 0 0 0 0 0.0784314 0 0 0 0 0.0784314 0 0 0 1 0"/>
<feBlend in2="shape" result="effect1_innerShadow_403_337"/>
<feColorMatrix in="SourceAlpha" result="hardAlpha" values="0 0 0 0 0 0 0 0 0 0 0 0 0 0 0 0 0 0 127 0"/>
<feOffset dx="-5" dy="-5"/>
<feGaussianBlur stdDeviation="10"/>
<feComposite in2="hardAlpha" k2="-1" k3="1" operator="arithmetic"/>
<feColorMatrix values="0 0 0 0 0.207843 0 0 0 0 0.254902 0 0 0 0 0.32549 0 0 0 1 0"/>
<feBlend in2="effect1_innerShadow_403_337" result="effect2_innerShadow_403_337"/>
</filter>
</defs>
</svg>

<svg width="115" height="115" viewBox="0 0 115 115" fill="none" xmlns="http://www.w3.org/2000/svg">
<rect width="115" height="115" fill="#E3E3E3"/>
<g filter="url(#filter0_dd_403_337)">
<path d="M-359 -554C-359 -570.569 -345.569 -584 -329 -584H471C487.569 -584 501 -570.569 501 -554V1940C501 1956.57 487.569 1970 471 1970H-329C-345.569 1970 -359 1956.57 -359 1940V-554Z" fill="#232A34"/>
</g>
<g filter="url(#filter1_ii_403_337)">
<path d="M260 -424.15C260 -431.27 257.182 -438.1 252.175 -443.13C247.157 -448.17 240.357 -451 233.268 -451H-94.2679C-101.357 -451 -108.157 -448.17 -113.175 -443.14C-118.192 -438.11 -121 -431.27 -121 -424.15V50.21C-121 57.33 -118.182 64.16 -113.175 69.19C-108.167 74.22 -101.367 77.05 -94.2778 77.05H40.5377C40.697 76.92 40.8563 76.78 40.9957 76.64L41.4138 76.21C42.0112 75.6 42.1705 74.52 41.7225 73.79L41.1351 72.89C34.574 67.43 30.3825 59.18 30.3825 49.96C30.3825 33.53 43.644 20.2 60.0118 20.2C76.3797 20.2 89.6412 33.52 89.6412 49.96C89.6412 59.27 85.38 67.57 78.7194 73.03L78.1917 73.83C77.7437 74.56 77.903 75.64 78.5003 76.25L78.9185 76.68C79.0479 76.81 79.1873 76.93 79.3267 77.05H233.238C240.327 77.05 247.127 74.22 252.135 69.19C257.143 64.16 259.96 57.33 259.96 50.21L260 -424.15Z" fill="#232A34"/>
</g>
<g filter="url(#filter2_ii_403_337)">
<path d="M-113.174 596.23C-110.695 598.72 -107.747 600.7 -104.501 602.05C-101.256 603.4 -97.7806 604.09 -94.2757 604.09H48.018L48.7648 603.89C49.5912 603.65 50.3479 603.19 50.9553 602.57L51.3735 602.14C51.9709 601.53 52.1302 600.45 51.6822 599.72L51.1544 598.92C44.4933 593.46 40.2318 585.16 40.2318 575.85C40.2318 559.42 53.4943 546.09 69.8634 546.09C86.2226 546.09 99.4951 559.41 99.4951 575.85C99.4951 585.08 95.3132 593.33 88.7417 598.78L88.1542 599.68C87.7061 600.41 87.8655 601.49 88.4629 602.1L88.8811 602.53C89.4884 603.15 90.2452 603.61 91.0716 603.85L91.9876 604.09H233.276C236.79 604.09 240.265 603.4 243.501 602.05C246.747 600.7 249.695 598.72 252.174 596.23C254.653 593.74 256.625 590.78 257.969 587.52C259.313 584.26 260 580.77 260 577.25V102.89C260 95.7704 257.182 88.9404 252.174 83.9104C247.166 78.8804 240.365 76.0504 233.276 76.0504H83.5043L81.2342 75.4504C80.4078 75.2104 79.651 74.7504 79.0437 74.1304L78.6255 73.7004C78.0281 73.0904 77.8687 72.0104 78.3168 71.2804L78.8445 70.4804C85.5057 65.0204 89.7672 56.7204 89.7672 47.4104C89.7672 30.9804 76.5047 17.6504 60.1356 17.6504C43.7764 17.6504 30.5039 30.9704 30.5039 47.4104C30.5039 56.6404 34.6858 64.8904 41.2573 70.3404L41.8448 71.2404C42.2928 71.9704 42.1335 73.0504 41.5361 73.6604L41.1179 74.0904C40.5106 74.7104 39.7538 75.1704 38.9274 75.4104L36.488 76.0604H-94.2658C-101.355 76.0604 -108.156 78.8904 -113.164 83.9204C-118.182 88.9304 -121 95.7604 -121 102.88V577.24C-121 580.77 -120.313 584.26 -118.969 587.51C-117.625 590.78 -115.653 593.74 -113.174 596.23Z" fill="#232A34"/>
</g>
<defs>
<filter id="filter0_dd_403_337" x="-392" y="-617" width="928" height="2622" filterUnits="userSpaceOnUse" color-interpolation-filters="sRGB">
<feFlood flood-opacity="0" result="BackgroundImageFix"/>
<feColorMatrix in="SourceAlpha" type="matrix" values="0 0 0 0 0 0 0 0 0 0 0 0 0 0 0 0 0 0 127 0" result="hardAlpha"/>
<feOffset dx="10" dy="10"/>
<feGaussianBlur stdDeviation="12.5"/>
<feComposite in2="hardAlpha" operator="out"/>
<feColorMatrix type="matrix" values="0 0 0 0 0.0784314 0 0 0 0 0.0784314 0 0 0 0 0.0784314 0 0 0 1 0"/>
<feBlend mode="normal" in2="BackgroundImageFix" result="effect1_dropShadow_403_337"/>
<feColorMatrix in="SourceAlpha" type="matrix" values="0 0 0 0 0 0 0 0 0 0 0 0 0 0 0 0 0 0 127 0" result="hardAlpha"/>
<feOffset dx="-8" dy="-8"/>
<feGaussianBlur stdDeviation="12.5"/>
<feComposite in2="hardAlpha" operator="out"/>
<feColorMatrix type="matrix" values="0 0 0 0 0.207843 0 0 0 0 0.254902 0 0 0 0 0.32549 0 0 0 1 0"/>
<feBlend mode="normal" in2="effect1_dropShadow_403_337" result="effect2_dropShadow_403_337"/>
<feBlend mode="normal" in="SourceGraphic" in2="effect2_dropShadow_403_337" result="shape"/>
</filter>
<filter id="filter1_ii_403_337" x="-126" y="-456" width="390" height="537.05" filterUnits="userSpaceOnUse" color-interpolation-filters="sRGB">
<feFlood flood-opacity="0" result="BackgroundImageFix"/>
<feBlend mode="normal" in="SourceGraphic" in2="BackgroundImageFix" result="shape"/>
<feColorMatrix in="SourceAlpha" type="matrix" values="0 0 0 0 0 0 0 0 0 0 0 0 0 0 0 0 0 0 127 0" result="hardAlpha"/>
<feOffset dx="4" dy="4"/>
<feGaussianBlur stdDeviation="10"/>
<feComposite in2="hardAlpha" operator="arithmetic" k2="-1" k3="1"/>
<feColorMatrix type="matrix" values="0 0 0 0 0.0784314 0 0 0 0 0.0784314 0 0 0 0 0.0784314 0 0 0 1 0"/>
<feBlend mode="normal" in2="shape" result="effect1_innerShadow_403_337"/>
<feColorMatrix in="SourceAlpha" type="matrix" values="0 0 0 0 0 0 0 0 0 0 0 0 0 0 0 0 0 0 127 0" result="hardAlpha"/>
<feOffset dx="-5" dy="-5"/>
<feGaussianBlur stdDeviation="10"/>
<feComposite in2="hardAlpha" operator="arithmetic" k2="-1" k3="1"/>
<feColorMatrix type="matrix" values="0 0 0 0 0.207843 0 0 0 0 0.254902 0 0 0 0 0.32549 0 0 0 1 0"/>
<feBlend mode="normal" in2="effect1_innerShadow_403_337" result="effect2_innerShadow_403_337"/>
</filter>
<filter id="filter2_ii_403_337" x="-126" y="12.6504" width="390" height="595.44" filterUnits="userSpaceOnUse" color-interpolation-filters="sRGB">
<feFlood flood-opacity="0" result="BackgroundImageFix"/>
<feBlend mode="normal" in="SourceGraphic" in2="BackgroundImageFix" result="shape"/>
<feColorMatrix in="SourceAlpha" type="matrix" values="0 0 0 0 0 0 0 0 0 0 0 0 0 0 0 0 0 0 127 0" result="hardAlpha"/>
<feOffset dx="4" dy="4"/>
<feGaussianBlur stdDeviation="10"/>
<feComposite in2="hardAlpha" operator="arithmetic" k2="-1" k3="1"/>
<feColorMatrix type="matrix" values="0 0 0 0 0.0784314 0 0 0 0 0.0784314 0 0 0 0 0.0784314 0 0 0 1 0"/>
<feBlend mode="normal" in2="shape" result="effect1_innerShadow_403_337"/>
<feColorMatrix in="SourceAlpha" type="matrix" values="0 0 0 0 0 0 0 0 0 0 0 0 0 0 0 0 0 0 127 0" result="hardAlpha"/>
<feOffset dx="-5" dy="-5"/>
<feGaussianBlur stdDeviation="10"/>
<feComposite in2="hardAlpha" operator="arithmetic" k2="-1" k3="1"/>
<feColorMatrix type="matrix" values="0 0 0 0 0.207843 0 0 0 0 0.254902 0 0 0 0 0.32549 0 0 0 1 0"/>
<feBlend mode="normal" in2="effect1_innerShadow_403_337" result="effect2_innerShadow_403_337"/>
</filter>
</defs>
</svg>
